apps/scalable/printer/printer.svg

<svg xmlns="http://www.w3.org/2000/svg" style="isolation:isolate" width="256" height="256"><defs><filter id="a" width="270.648" height="254.338" x="-7.32" y="2.95" filterUnits="userSpaceOnUse"><feGaussianBlur xmlns="http://www.w3.org/2000/svg" in="SourceGraphic" stdDeviation="4.294"/><feOffset xmlns="http://www.w3.org/2000/svg" dy="4" result="pf_100_offsetBlur"/><feFlood xmlns="http://www.w3.org/2000/svg" flood-opacity=".4"/><feComposite xmlns="http://www.w3.org/2000/svg" in2="pf_100_offsetBlur" operator="in" result="pf_100_dropShadow"/><feBlend xmlns="http://www.w3.org/2000/svg" in="SourceGraphic" in2="pf_100_dropShadow"/></filter></defs><g filter="url(#a)"><linearGradient id="b" x1=".567" x2=".567" y1="1.071" y2="-.071" gradientTransform="matrix(244.648 0 0 228.338 5.676 11.947)" gradientUnits="userSpaceOnUse"><stop offset="0%" stop-color="#a0a0a0"/><stop offset="100%" stop-color="#dfdfdf"/></linearGradient><path fill="url(#b)" d="M165.685 11.947c74.055 0 84.639 10.557 84.639 84.544v59.251c0 73.986-10.584 84.543-84.639 84.543h-75.37c-74.055 0-84.639-10.557-84.639-84.543V96.491c0-73.987 10.584-84.544 84.639-84.544h75.37z"/></g><path fill="#C2C2C2" d="M247.746 198.593c.419-2.415.812-4.879 1.113-7.573.365-3.253.649-6.715.866-10.4.434-7.369.599-15.627.599-24.875V96.493c0-9.248-.165-17.506-.599-24.875a197.869 197.869 0 0 0-.866-10.4c-.364-3.254-.808-6.298-1.345-9.147-.538-2.848-1.168-5.501-1.905-7.971-.736-2.469-1.578-4.755-2.539-6.871a39.5 39.5 0 0 0-3.252-5.847 33.261 33.261 0 0 0-4.043-4.905 33.279 33.279 0 0 0-4.91-4.037 39.619 39.619 0 0 0-5.855-3.248c-2.118-.959-4.407-1.8-6.879-2.535-2.472-.735-5.127-1.366-7.979-1.902-2.851-.537-5.899-.98-9.156-1.344a198.576 198.576 0 0 0-10.412-.863c-7.377-.434-15.641-.598-24.898-.598H90.314c-9.257 0-17.521.164-24.898.598-3.688.216-7.155.499-10.412.863-3.257.364-6.305.807-9.156 1.344-2.852.536-5.507 1.167-7.979 1.902-2.472.735-4.761 1.576-6.879 2.535a39.619 39.619 0 0 0-5.855 3.248 33.279 33.279 0 0 0-4.91 4.037 33.261 33.261 0 0 0-4.043 4.905 39.5 39.5 0 0 0-3.252 5.847c-.961 2.116-1.803 4.402-2.539 6.871-.737 2.47-1.367 5.123-1.905 7.971-.537 2.849-.981 5.893-1.345 9.147a197.869 197.869 0 0 0-.866 10.4c-.434 7.369-.599 15.627-.599 24.875v59.252c0 9.248.165 17.506.599 24.875.217 3.685.501 7.147.866 10.4.301 2.694.694 5.158 1.113 7.573h26.019l9.95-49.747h169.14l9.949 49.747h24.434z"/><path fill="#262626" d="M5.676 128.948v26.797c0 9.248.165 17.506.599 24.875.217 3.685.501 7.147.866 10.4.301 2.694.694 5.158 1.113 7.573h26.019l9.95-49.747h169.14l9.949 49.747h24.434c.419-2.415.812-4.879 1.113-7.573.365-3.253.649-6.715.866-10.4.434-7.369.599-15.627.599-24.875v-26.797H5.676zM223.312 18.567c-1.659-.679-3.319-1.356-5.181-1.91-2.472-.735-5.127-1.366-7.979-1.902-2.851-.537-5.899-.98-9.156-1.344a198.576 198.576 0 0 0-10.412-.863c-7.377-.434-15.641-.598-24.898-.598H90.314c-9.257 0-17.521.164-24.898.598-3.688.216-7.155.499-10.412.863-3.257.364-6.305.807-9.156 1.344-2.852.536-5.507 1.167-7.979 1.902-1.292.384-2.402.88-3.596 1.324v46.295c0 10.989 8.91 19.899 19.899 19.899h149.242c10.989 0 19.898-8.91 19.898-19.899V18.567z"/><path fill="#A6D74F" d="M143.717 64.276h59.696V34.429h-59.696v29.847z"/><path fill="#FFF" d="M28.428 231.624c.863.466 1.635 1.002 2.562 1.422 2.118.959 4.407 1.8 6.879 2.535 2.472.735 5.127 1.366 7.979 1.902 2.851.537 5.899.98 9.156 1.344 3.257.364 6.724.647 10.412.863 7.377.433 15.641.598 24.898.598h75.372c9.257 0 17.521-.165 24.898-.598 3.688-.216 7.155-.499 10.412-.863 3.257-.364 6.305-.807 9.156-1.344 2.852-.536 5.507-1.167 7.979-1.902 2.472-.735 4.761-1.576 6.879-2.535a39.719 39.719 0 0 0 5.361-2.973l-16.248-81.227H44.986l-16.558 82.778z"/><path fill="#515151" d="M169.351 178.695H89.756a4.97 4.97 0 0 1-4.975-4.975 4.97 4.97 0 0 1 4.975-4.975h79.594a4.97 4.97 0 0 1 4.975 4.975 4.97 4.97 0 0 1-4.974 4.975zM184.274 203.568H74.832a4.97 4.97 0 0 1-4.974-4.975 4.97 4.97 0 0 1 4.974-4.975h109.443a4.97 4.97 0 0 1 4.975 4.975 4.972 4.972 0 0 1-4.976 4.975M199.198 228.441H59.908a4.97 4.97 0 0 1-4.975-4.975 4.97 4.97 0 0 1 4.975-4.975h139.29a4.97 4.97 0 0 1 4.975 4.975 4.97 4.97 0 0 1-4.975 4.975z"/><g opacity=".4"><linearGradient id="c" x1=".517" x2=".517" y2="1"><stop offset="0%" stop-color="#fff"/><stop offset="12.5%" stop-opacity=".098" stop-color="#fff"/><stop offset="92.5%" stop-opacity=".098"/><stop offset="100%" stop-opacity=".498"/></linearGradient><path fill="none" stroke="url(#c)" stroke-linecap="round" stroke-linejoin="round" stroke-width="4.077" d="M165.685 11.947c74.055 0 84.639 10.557 84.639 84.544v59.251c0 73.986-10.584 84.543-84.639 84.543h-75.37c-74.055 0-84.639-10.557-84.639-84.543V96.491c0-73.987 10.584-84.544 84.639-84.544h75.37z" vector-effect="non-scaling-stroke"/></g></svg>

<svg xmlns="http://www.w3.org/2000/svg" style="isolation:isolate" width="256" height="256" viewBox="0 0 256 256">
 <defs>
  <filter id="8tXBTUrErEUTDwh78MAoUlhocqU8gOyp" width="270.648" height="254.338" x="-7.32" y="2.95" filterUnits="userSpaceOnUse">
   <feGaussianBlur xmlns="http://www.w3.org/2000/svg" in="SourceGraphic" stdDeviation="4.294"/>
   <feOffset xmlns="http://www.w3.org/2000/svg" dx="0" dy="4" result="pf_100_offsetBlur"/>
   <feFlood xmlns="http://www.w3.org/2000/svg" flood-opacity=".4"/>
   <feComposite xmlns="http://www.w3.org/2000/svg" in2="pf_100_offsetBlur" operator="in" result="pf_100_dropShadow"/>
   <feBlend xmlns="http://www.w3.org/2000/svg" in="SourceGraphic" in2="pf_100_dropShadow" mode="normal"/>
  </filter>
 </defs>
 <g filter="url(#8tXBTUrErEUTDwh78MAoUlhocqU8gOyp)">
  <linearGradient id="_lgradient_201" x1=".567" x2=".567" y1="1.071" y2="-.071" gradientTransform="matrix(244.648,0,0,228.338,5.676,11.947)" gradientUnits="userSpaceOnUse">
   <stop offset="0%" style="stop-color:rgb(160,160,160)"/>
   <stop offset="100%" style="stop-color:rgb(223,223,223)"/>
  </linearGradient>
  <path fill="url(#_lgradient_201)" d="M 165.685 11.947 C 239.74 11.947 250.324 22.504 250.324 96.491 L 250.324 155.742 C 250.324 229.728 239.74 240.285 165.685 240.285 L 90.315 240.285 C 16.26 240.285 5.676 229.728 5.676 155.742 L 5.676 96.491 C 5.676 22.504 16.26 11.947 90.315 11.947 L 165.685 11.947 Z"/>
 </g>
 <g>
  <path fill="#C2C2C2" d="M 247.746 198.593 C 248.165 196.178 248.558 193.714 248.859 191.02 C 249.224 187.767 249.508 184.305 249.725 180.62 C 250.159 173.251 250.324 164.993 250.324 155.745 L 250.324 96.493 C 250.324 87.245 250.159 78.987 249.725 71.618 C 249.508 67.933 249.224 64.471 248.859 61.218 C 248.495 57.964 248.051 54.92 247.514 52.071 C 246.976 49.223 246.346 46.57 245.609 44.1 C 244.873 41.631 244.031 39.345 243.07 37.229 C 242.109 35.114 241.03 33.17 239.818 31.382 C 238.607 29.594 237.263 27.963 235.775 26.477 C 234.288 24.991 232.655 23.65 230.865 22.44 C 229.075 21.23 227.128 20.152 225.01 19.192 C 222.892 18.233 220.603 17.392 218.131 16.657 C 215.659 15.922 213.004 15.291 210.152 14.755 C 207.301 14.218 204.253 13.775 200.996 13.411 C 197.739 13.047 194.272 12.764 190.584 12.548 C 183.207 12.114 174.943 11.95 165.686 11.95 L 90.314 11.95 C 81.057 11.95 72.793 12.114 65.416 12.548 C 61.728 12.764 58.261 13.047 55.004 13.411 C 51.747 13.775 48.699 14.218 45.848 14.755 C 42.996 15.291 40.341 15.922 37.869 16.657 C 35.397 17.392 33.108 18.233 30.99 19.192 C 28.872 20.152 26.925 21.23 25.135 22.44 C 23.345 23.65 21.712 24.991 20.225 26.477 C 18.737 27.963 17.393 29.594 16.182 31.382 C 14.97 33.17 13.891 35.114 12.93 37.229 C 11.969 39.345 11.127 41.631 10.391 44.1 C 9.654 46.57 9.024 49.223 8.486 52.071 C 7.949 54.92 7.505 57.964 7.141 61.218 C 6.776 64.471 6.492 67.933 6.275 71.618 C 5.841 78.987 5.676 87.245 5.676 96.493 L 5.676 155.745 C 5.676 164.993 5.841 173.251 6.275 180.62 C 6.492 184.305 6.776 187.767 7.141 191.02 C 7.442 193.714 7.835 196.178 8.254 198.593 L 34.273 198.593 L 44.223 148.846 L 213.363 148.846 L 223.312 198.593 L 247.746 198.593 Z"/>
  <path fill="#262626" d="M 5.676 128.948 L 5.676 155.745 C 5.676 164.993 5.841 173.251 6.275 180.62 C 6.492 184.305 6.776 187.767 7.141 191.02 C 7.442 193.714 7.835 196.178 8.254 198.593 L 34.273 198.593 L 44.223 148.846 L 213.363 148.846 L 223.312 198.593 L 247.746 198.593 C 248.165 196.178 248.558 193.714 248.859 191.02 C 249.224 187.767 249.508 184.305 249.725 180.62 C 250.159 173.251 250.324 164.993 250.324 155.745 L 250.324 128.948 L 5.676 128.948 Z"/>
  <path fill="#262626" d="M 223.312 18.567 C 221.653 17.888 219.993 17.211 218.131 16.657 C 215.659 15.922 213.004 15.291 210.152 14.755 C 207.301 14.218 204.253 13.775 200.996 13.411 C 197.739 13.047 194.272 12.764 190.584 12.548 C 183.207 12.114 174.943 11.95 165.686 11.95 L 90.314 11.95 C 81.057 11.95 72.793 12.114 65.416 12.548 C 61.728 12.764 58.261 13.047 55.004 13.411 C 51.747 13.775 48.699 14.218 45.848 14.755 C 42.996 15.291 40.341 15.922 37.869 16.657 C 36.577 17.041 35.467 17.537 34.273 17.981 L 34.273 64.276 C 34.273 75.265 43.183 84.175 54.172 84.175 L 203.414 84.175 C 214.403 84.175 223.312 75.265 223.312 64.276 L 223.312 18.567 Z"/>
  <path fill="#A6D74F" d="M 143.717 64.276 L 203.413 64.276 L 203.413 34.429 L 143.717 34.429 L 143.717 64.276 Z"/>
  <path fill="#FFFFFF" d="M 28.428 231.624 C 29.291 232.09 30.063 232.626 30.99 233.046 C 33.108 234.005 35.397 234.846 37.869 235.581 C 40.341 236.316 42.996 236.947 45.848 237.483 C 48.699 238.02 51.747 238.463 55.004 238.827 C 58.261 239.191 61.728 239.474 65.416 239.69 C 72.793 240.123 81.057 240.288 90.314 240.288 L 165.686 240.288 C 174.943 240.288 183.207 240.123 190.584 239.69 C 194.272 239.474 197.739 239.191 200.996 238.827 C 204.253 238.463 207.301 238.02 210.152 237.483 C 213.004 236.947 215.659 236.316 218.131 235.581 C 220.603 234.846 222.892 234.005 225.01 233.046 C 226.949 232.167 228.708 231.16 230.371 230.073 L 214.123 148.846 L 44.986 148.846 L 28.428 231.624 Z"/>
  <path fill="#515151" d="M 169.351 178.695 L 89.756 178.695 C 87.005 178.695 84.781 176.471 84.781 173.72 C 84.781 170.969 87.005 168.745 89.756 168.745 L 169.35 168.745 C 172.101 168.745 174.325 170.969 174.325 173.72 C 174.325 176.471 172.101 178.695 169.351 178.695 Z"/>
  <path fill="#515151" d="M 184.274 203.568 L 74.832 203.568 C 72.081 203.568 69.858 201.344 69.858 198.593 C 69.858 195.842 72.081 193.618 74.832 193.618 L 184.275 193.618 C 187.026 193.618 189.25 195.842 189.25 198.593 C 189.249 201.344 187.025 203.568 184.274 203.568"/>
  <path fill="#515151" d="M 199.198 228.441 L 59.908 228.441 C 57.157 228.441 54.933 226.217 54.933 223.466 C 54.933 220.715 57.157 218.491 59.908 218.491 L 199.198 218.491 C 201.949 218.491 204.173 220.715 204.173 223.466 C 204.173 226.217 201.949 228.441 199.198 228.441 Z"/>
 </g>
 <g opacity=".4">
  <linearGradient id="_lgradient_202" x1=".517" x2=".517" y1="0" y2="1">
   <stop offset="0%" style="stop-color:rgb(255,255,255)"/>
   <stop offset="12.5%" stop-opacity=".098" style="stop-color:rgb(255,255,255)"/>
   <stop offset="92.5%" stop-opacity=".098" style="stop-color:rgb(0,0,0)"/>
   <stop offset="100%" stop-opacity=".498" style="stop-color:rgb(0,0,0)"/>
  </linearGradient>
  <path fill="none" stroke="url(#_lgradient_202)" stroke-linecap="round" stroke-linejoin="round" stroke-width="4.077" d="M 165.685 11.947 C 239.74 11.947 250.324 22.504 250.324 96.491 L 250.324 155.742 C 250.324 229.728 239.74 240.285 165.685 240.285 L 90.315 240.285 C 16.26 240.285 5.676 229.728 5.676 155.742 L 5.676 96.491 C 5.676 22.504 16.26 11.947 90.315 11.947 L 165.685 11.947 Z" vector-effect="non-scaling-stroke"/>
 </g>
</svg>
